img/about/icon2.svg

<svg width="50" height="50" viewBox="0 0 50 50" fill="none" xmlns="http://www.w3.org/2000/svg">
<path d="M26.0417 3.17813V0H23.9583V3.17813C12.7292 3.71042 3.71042 12.7292 3.17813 23.9583H0V26.0417H3.17813C3.71042 37.2708 12.7292 46.2896 23.9583 46.8219V50H26.0417V46.8219C37.2708 46.2896 46.2896 37.2708 46.8219 26.0417H50V23.9583H46.8219C46.2896 12.7292 37.2708 3.71042 26.0417 3.17813ZM26.0417 44.7385V41.6667H23.9583V44.7385C13.8781 44.2104 5.78958 36.1219 5.26146 26.0417H8.33333V23.9583H5.26146C5.78958 13.8781 13.8781 5.78958 23.9583 5.26146V8.33333H26.0417V5.26146C36.1219 5.78958 44.2104 13.8781 44.7385 23.9583H41.6667V26.0417H44.7385C44.2104 36.1219 36.1219 44.2104 26.0417 44.7385Z" fill="#0083C1"/>
<path d="M25.1837 12.2461C19.8622 12.2461 16 16.6491 16 22.7144C16 28.8792 24.1408 36.7555 24.4867 37.0874L25.1837 37.7563L25.8806 37.0874C26.2265 36.7555 34.3673 28.8792 34.3673 22.7144C34.3673 16.6491 30.5051 12.2461 25.1837 12.2461ZM25.1837 34.8545C23.2633 32.8561 18.0408 27.0273 18.0408 22.7144C18.0408 17.7838 20.9776 14.3398 25.1837 14.3398C29.3898 14.3398 32.3265 17.7838 32.3265 22.7144C32.3265 27.0273 27.1041 32.8561 25.1837 34.8545Z" fill="#0083C1"/>
<path d="M25.0816 17.3477C22.8306 17.3477 21 19.1783 21 21.4293C21 23.6803 22.8306 25.5109 25.0816 25.5109C27.3327 25.5109 29.1633 23.6803 29.1633 21.4293C29.1633 19.1783 27.3327 17.3477 25.0816 17.3477ZM25.0816 23.4701C23.9561 23.4701 23.0408 22.5548 23.0408 21.4293C23.0408 20.3038 23.9561 19.3885 25.0816 19.3885C26.2071 19.3885 27.1224 20.3038 27.1224 21.4293C27.1224 22.5548 26.2071 23.4701 25.0816 23.4701Z" fill="#0083C1"/>
</svg>

<svg width="50" height="50" fill="none" xmlns="http://www.w3.org/2000/svg"><path d="M26.042 3.178V0h-2.084v3.178C12.73 3.71 3.71 12.73 3.178 23.958H0v2.084h3.178c.532 11.229 9.551 20.248 20.78 20.78V50h2.084v-3.178c11.229-.532 20.248-9.551 20.78-20.78H50v-2.084h-3.178C46.29 12.73 37.27 3.71 26.042 3.178zm0 41.56v-3.071h-2.084v3.072C13.878 44.21 5.79 36.121 5.261 26.042h3.072v-2.084H5.261C5.79 13.878 13.878 5.79 23.958 5.261v3.072h2.084V5.261c10.08.529 18.168 8.617 18.697 18.697h-3.072v2.084h3.072c-.529 10.08-8.617 18.168-18.697 18.697z" fill="#0083C1"/><path d="M25.184 12.246C19.862 12.246 16 16.65 16 22.714c0 6.165 8.14 14.041 8.487 14.373l.697.67.697-.67c.346-.332 8.486-8.208 8.486-14.373 0-6.065-3.862-10.468-9.183-10.468zm0 22.609c-1.92-1.999-7.143-7.828-7.143-12.14 0-4.931 2.937-8.375 7.143-8.375 4.206 0 7.143 3.444 7.143 8.374 0 4.313-5.223 10.142-7.143 12.14z" fill="#0083C1"/><path d="M25.082 17.348A4.086 4.086 0 0021 21.429a4.086 4.086 0 004.082 4.082 4.086 4.086 0 004.081-4.082 4.086 4.086 0 00-4.081-4.081zm0 6.122a2.043 2.043 0 01-2.041-2.04c0-1.126.915-2.041 2.04-2.041 1.126 0 2.041.915 2.041 2.04a2.042 2.042 0 01-2.04 2.041z" fill="#0083C1"/></svg>
